X: 12
T: Mr. Garden of Troup
T: Air, F
L: 1/16
M: C
K: F
|: C2| F6G2 A4F4| A2c2B2A2 a6g2| f4F4 B2A2G2F2| G8 G4A4| F6G2 A4F4| A2c2B2A2 a6g2| f2g2f2d2 c2d2f2c2| A4F4 F6:| 
c2| f2e2a2g2 f4c4| A2B2c2B2 B2A2G2F2| C4c4 d2c2B2A2| B4G4 G6c2| f2e2a2g2 f4c4| A2B2c2B2 B2A2G2F2| C4d4 c2d2c2B2| A4F4 F6c2| 
f2e2a2g2 f4c4| A2B2c2B2 B2A2G2F2| C4c4 d2c2B2A2| B4G4 G4B4| A6F2 C4A,4| B,4D4 C4B4| A2B2c2A2 f2c2d2B2| A4F4 F6|| 
D: Carl MacKenzie, Highland Fiddle and Dance
